src/assets/icons/letters,simple,sans-n.svg

<svg width="48" height="48" viewBox="0 0 48 48" fill="none" xmlns="http://www.w3.org/2000/svg">
<rect opacity="0.2" x="5" y="5" width="38" height="38" rx="4" fill="black"/>
<path d="M33.4192 13.4545H28.6745V27.6335H28.4763L18.7448 13.4545H14.5616V36H19.3283V21.81H19.4934L29.302 36H33.4192V13.4545Z" fill="black"/>
</svg>

<svg xmlns="http://www.w3.org/2000/svg" width="48" height="48" fill="none" viewBox="0 0 48 48">
  <rect width="38" height="38" x="5" y="5" fill="#000" opacity=".2" rx="4"/>
  <path fill="#000" d="M33.42 13.454h-4.746v14.18h-.198l-9.731-14.18h-4.183V36h4.766V21.81h.165L29.302 36h4.117V13.454z"/>
</svg>
